packages/core/src/svgs/tokens/branded/ARCH.svg

<svg width="24" height="24" viewBox="0 0 24 24" fill="none" xmlns="http://www.w3.org/2000/svg">
<path d="M7.47999 7.47999L2 2V22H21.9999L18 17.9999H5.99999V10.94C5.99999 9.80665 6.39999 8.47332 7.47999 7.47332V7.47999Z" fill="#373737"/>
<path d="M6 10.94C6 9.80662 6.39999 8.4733 7.48 7.4733L12 12L6 17.9999V10.94Z" fill="#FCFEFB"/>
<path d="M18 17.9999H6L12 12L18 17.9999Z" fill="#D3DDFF"/>
<path d="M18 17.9999L21.9999 22V2H2L7.47999 7.47999C8.41332 6.61333 9.8666 5.99999 12 5.99999C16.5866 5.99999 18 8.82665 18 10.94V17.9999Z" fill="#FCFEFB"/>
</svg>

<svg xmlns="http://www.w3.org/2000/svg" width="24" height="24" fill="none" viewBox="0 0 24 24">
    <path fill="#373737" d="M7.48 7.48 2 2v20h20l-4-4H6v-7.06c0-1.133.4-2.467 1.48-3.467z"/>
    <path fill="#FCFEFB" d="M6 10.94c0-1.133.4-2.467 1.48-3.467L12 12l-6 6z"/>
    <path fill="#D3DDFF" d="M18 18H6l6-6z"/>
    <path fill="#FCFEFB" d="m18 18 4 4V2H2l5.48 5.48C8.413 6.613 9.867 6 12 6c4.587 0 6 2.827 6 4.94z"/>
</svg>
